X:64
T:Waterloo Dance. JBu.64
T:Timour the Tartar,aka. JBu.64
T:Blanchland Races,aka. JBu.64
O:England,South Yorkshire
S:Joshua Burnett’s MS,c1835,S.Yorkshire
M:4/4
L:1/8
Q:1/2=100
R:reel
Z:vmp.R.Greig.2011
K:A
E2|A2cB/A/ eAcA|eAaA gAfA|eAcA eAcA|BEcE dEBE|
A2cB/A/ eAcA|eAaA gAfA|efec eaec|BABc A2:|
G2GF/E/|BEGE|BEdE cEBE|c2cB/A/ cAeA|eAfA eAcA|
eA cB/A/ gAfA|eA cB/A/ aAfA|ecfe dcBA|GABA GEF”DC”G|]

